Newaita-dark/actions/32/filename-discnumber-amarok.svg

<svg height="32" viewBox="0 0 32 32" width="32" xmlns="http://www.w3.org/2000/svg"><g fill="#e0e0e0"><path d="m10.585938 28.695312v-25.136718c0-.367188-.296876-.664063-.664063-.664063h-1.320313c-.367187 0-.664062.296875-.664062.664063v25.136718c0 .367188.296875.660157.664062.660157h1.320313c.367187 0 .664063-.292969.664063-.660157zm0 0"/><path d="m23.816406 28.695312v-25.136718c0-.367188-.296875-.664063-.664062-.664063h-1.320313c-.367187 0-.664062.296875-.664062.664063v25.136718c0 .367188.296875.660157.664062.660157h1.320313c.367187 0 .664062-.292969.664062-.660157zm0 0"/><path d="m3.308594 10.835938h25.136718c.367188 0 .660157-.296876.660157-.664063v-1.320313c0-.367187-.292969-.664062-.660157-.664062h-25.136718c-.367188 0-.664063.296875-.664063.664062v1.320313c0 .367187.296875.664063.664063.664063zm0 0"/><path d="m3.308594 24.066406h25.136718c.367188 0 .660157-.296875.660157-.664062v-1.320313c0-.367187-.292969-.664062-.660157-.664062h-25.136718c-.367188 0-.664063.296875-.664063.664062v1.320313c0 .367187.296875.664062.664063.664062zm0 0"/></g></svg>

<svg xmlns="http://www.w3.org/2000/svg" xmlns:xlink="http://www.w3.org/1999/xlink" width="32px" height="32px" viewBox="0 0 32 32" version="1.1">
<g id="surface1">
     <defs>
  <style id="current-color-scheme" type="text/css">
   .ColorScheme-Text { color:#eeeeee; } .ColorScheme-Highlight { color:#424242; }
  </style>
 </defs>
<path style="fill:currentColor" class="ColorScheme-Text" d="M 10.585938 28.695312 L 10.585938 3.558594 C 10.585938 3.191406 10.289062 2.894531 9.921875 2.894531 L 8.601562 2.894531 C 8.234375 2.894531 7.9375 3.191406 7.9375 3.558594 L 7.9375 28.695312 C 7.9375 29.0625 8.234375 29.355469 8.601562 29.355469 L 9.921875 29.355469 C 10.289062 29.355469 10.585938 29.0625 10.585938 28.695312 Z M 10.585938 28.695312 "/>
     <defs>
  <style id="current-color-scheme" type="text/css">
   .ColorScheme-Text { color:#eeeeee; } .ColorScheme-Highlight { color:#424242; }
  </style>
 </defs>
<path style="fill:currentColor" class="ColorScheme-Text" d="M 23.816406 28.695312 L 23.816406 3.558594 C 23.816406 3.191406 23.519531 2.894531 23.152344 2.894531 L 21.832031 2.894531 C 21.464844 2.894531 21.167969 3.191406 21.167969 3.558594 L 21.167969 28.695312 C 21.167969 29.0625 21.464844 29.355469 21.832031 29.355469 L 23.152344 29.355469 C 23.519531 29.355469 23.816406 29.0625 23.816406 28.695312 Z M 23.816406 28.695312 "/>
     <defs>
  <style id="current-color-scheme" type="text/css">
   .ColorScheme-Text { color:#eeeeee; } .ColorScheme-Highlight { color:#424242; }
  </style>
 </defs>
<path style="fill:currentColor" class="ColorScheme-Text" d="M 3.308594 10.835938 L 28.445312 10.835938 C 28.8125 10.835938 29.105469 10.539062 29.105469 10.171875 L 29.105469 8.851562 C 29.105469 8.484375 28.8125 8.1875 28.445312 8.1875 L 3.308594 8.1875 C 2.941406 8.1875 2.644531 8.484375 2.644531 8.851562 L 2.644531 10.171875 C 2.644531 10.539062 2.941406 10.835938 3.308594 10.835938 Z M 3.308594 10.835938 "/>
     <defs>
  <style id="current-color-scheme" type="text/css">
   .ColorScheme-Text { color:#eeeeee; } .ColorScheme-Highlight { color:#424242; }
  </style>
 </defs>
<path style="fill:currentColor" class="ColorScheme-Text" d="M 3.308594 24.066406 L 28.445312 24.066406 C 28.8125 24.066406 29.105469 23.769531 29.105469 23.402344 L 29.105469 22.082031 C 29.105469 21.714844 28.8125 21.417969 28.445312 21.417969 L 3.308594 21.417969 C 2.941406 21.417969 2.644531 21.714844 2.644531 22.082031 L 2.644531 23.402344 C 2.644531 23.769531 2.941406 24.066406 3.308594 24.066406 Z M 3.308594 24.066406 "/>
</g>
</svg>
